resources/icons/brands/facebook.svg

<svg width="16" height="16" viewBox="0 0 16 16" fill="none" xmlns="http://www.w3.org/2000/svg">
  <path
    d="M11.922 5.28078H9.20203V4.08078C9.20203 3.76078 9.44203 3.44078 9.76203 3.36078H9.84203H11.762V0.800781H8.96203C6.48203 0.800781 6.00203 2.72078 6.00203 3.92078V5.28078H4.08203V7.84078H6.00203V15.2008H9.20203V7.84078H11.682L11.922 5.28078Z"
    stroke="currentColor" stroke-width="1.6" stroke-linecap="round" stroke-linejoin="round" />
</svg>

<svg width="16" height="16" viewBox="0 0 16 16" fill="none" xmlns="http://www.w3.org/2000/svg"><path d="M11.922 5.28h-2.72v-1.2c0-.32.24-.64.56-.72h2V.8h-2.8c-2.48 0-2.96 1.92-2.96 3.12v1.36h-1.92v2.56h1.92v7.36h3.2V7.84h2.48l.24-2.56Z" stroke="currentColor" stroke-width="1.6" stroke-linecap="round" stroke-linejoin="round"/></svg>
